!!!!SEGMENT: pl-kc--40102-iii-1-saf--002-002_zielenski-mikolaj--communiones-totius-anni-in-festo-s-stephani-video-caelos-apertos.krn
!!!cenid: 16xx:1533
!!!COM: Zieleński, Mikołaj
!!!COM-rismid: pe30013481
!!!CDT:
!!!CNT: Polish
!!!GTL: Communiones totius anni
!!!OTL: In festo S. Stephani/Video caelos apertos
!!!OMV: 002
!!!PDT: 1611
!!!AGN:
!!!SMS-siglum: PL-Kc
!!!SMS-shelfmark: 40102 III/1 Saf.
!!!SMS-shelfwork: 002-002 G
!!!SMS-variant:
!!!SMS-altvar:
!!!NIFC-rismid: 990069887
!!!URL-scan: https://cyfrowe.mnk.pl/dlibra/publication/24235/edition/23926/content?ref=desc
!!!ONB-nifc: UWAGA: str. 46-47. Uwaga: W xml metrum 2/1 do źródłowego C| i odpowiednio 3/1 do 3/2
**kern	**kern	**kern	**kern
*group1	*group1	*group1	*group1
*part4	*part3	*part2	*part1
*staff4	*staff3	*staff2	*staff1
*I""Organo	*I""Organo	*I""Organo	*I""Organo
*I''org	*I''org	*I''org	*I''org
*Iorgan	*Iorgan	*Iorgan	*Iorgan
*ICklav	*ICklav	*ICklav	*ICklav
*clefF3	*clefC3	*clefC2	*clefG2
*k[]	*k[]	*k[]	*k[]
*C:	*C:	*C:	*C:
*M2/1	*M2/1	*M2/1	*M2/1
*met(C|)	*met(C|)	*met(C|)	*met(C|)
=1	=1	=1	=1
!	!	!LO:TX:a:t=Video caelos apertos.	!LO:TX:a:t=In feſto S. Stephani. Solus Cantus'canet.
00r	1r	1.g	00r
.	1.c	.	.
.	.	2g\	.
=2-	=2-	=2-	=2-
.	.	1c	.
.	2c/	.	.
.	1G	2r	.
.	.	2g\	.
=3	=3	=3	=3
0r	2r	2a\	00r
.	2d\	2f#X\	.
.	2e\	2.g\	.
.	1c	.	.
.	.	4f#\	.
=4-	=4-	=4-	=4-
1.G	.	2e/	.
.	4B/	4d/	.
.	4A/	4c/	.
.	4B/	2d/	.
.	4c/	.	.
2G\	2d\	4g\	.
.	.	4fny\	.
=5	=5	=5	=5
1C	2.c/	4e/	1.cc
.	.	4d/	.
.	.	1e	.
.	4B/	.	.
2r	4A/	.	.
.	4G/	.	.
2F/	2A/	2f\	2cc\
=6-	=6-	=6-	=6-
2G\	1B	2d/	1g
2E/	.	4g\	.
.	.	4f\	.
1A	1c	4e/	2r
.	.	4d/	.
.	.	2e/	2cc\
=7	=7	=7	=7
1G	2.B/	2B/	2dd\
.	.	2.g\	2b/
.	4c/	.	.
2r	2.d\	.	1a
.	.	8f#X\	.
.	.	8e\	.
2D/	.	2f#\	.
.	4c/	.	.
=8-	=8-	=8-	=8-
2E/	4B/	2g\	1g
.	4G/	.	.
2C/	1c	4fny\	.
.	.	4e/	.
1G	.	4d/	1r
.	.	4c/	.
.	2B/	2d/	.
=9	=9	=9	=9
2.C/	2.c/	1e	2r
.	.	.	1g
4D/	8B/	.	.
.	8A/	.	.
4E/	4G/	1r	.
4F/	4A/	.	.
4G\	4B/	.	2g/
4E/	4G/	.	.
=10-	=10-	=10-	=10-
2.F/	1.A	2r	1c
.	.	2c/	.
4E/	.	.	.
2D/	.	2d/	2r
4E/	2G/	2B/	2g/
4D/	.	.	.
=11	=11	=11	=11
4C/	2E/	2c/	2a/
4AA/	.	.	.
1D	4F/	1A	2.f/
.	4G/	.	.
.	4A/	.	.
.	4F/	.	4d/
2BB/	1G	2B/	1dd
=12-	=12-	=12-	=12-
4C/	.	1e	.
4D/	.	.	.
4E/	1g	.	2.cc\
4F/	.	.	.
!LO:N:vis=4	!	!	!
2G\	.	2d/	.
.	.	.	8b/
.	.	.	8a/
2GG/	2d\	4g\	2b/
.	.	4f\	.
=13	=13	=13	=13
0C	2r	4e/	1cc
.	.	4d/	.
.	2G/	2e/	.
.	1.c	2r	2r
.	.	2e/	2g/
=14-	=14-	=14-	=14-
0r	.	1.a	1.cc
.	2B/	.	.
.	2A/	.	.
.	4e\	[y2g\	2b/
.	4d\	.	.
=15	=15	=15	=15
!	!	!LO:N:xstem:cue	!
1r	4c/	4g\]	1a
.	4A/	8f#X\	.
.	.	8e\	.
.	2d\	2f#\	.
2r	2B/	2g\	1g
2C/	1c	1e	.
=16-	=16-	=16-	=16-
1.G	.	.	1r
.	4B/	4d/	.
.	4A/	4c/	.
.	2B/	2d/	2r
2E/	2G/	[2c/	2cc\
=17	=17	=17	=17
1D	2A/	2c/]	1.ff
.	2F/	2B/	.
*custos:C	*custos:G	*custos:c	*
!LO:LB:g=original	!LO:LB:g=original	!LO:LB:g=original	!
!LO:TX:t=P:problem:nie ma tego dźwieku, ale custos sugeruje że powinien być	!LO:TX:t=P:problem:nie ma tego dźwieku, ale custos sugeruje że powinien być	!LO:TX:t=P:problem:nie ma tego dźwieku, ale custos sugeruje że powinien być	!
1Cyy	1Gyy	1cyy	.
.	.	.	2ee\
*	*	*	*custos:dd
!	!	!	!LO:LB:g=original
=18-	=18-	=18-	=18-
2.G\	1.B	1d	4dd\
.	.	.	4cc\
.	.	.	4b/
4F/	.	.	4a/
2E/	.	2e/	2g/
2BB/	2d\	4g\	2dd\
.	.	4f\	.
=19	=19	=19	=19
2.C/	2c/	4e/	2g/
.	.	4d/	.
.	2.G/	4e/	2.cc\
4D/	.	4f\	.
4E/	.	2g\	.
4F/	4A/	.	4cc\
2G\	2B/	2d/	2b/
=20-	=20-	=20-	=20-
2.C/	2c/	2g\	2ee\
.	1g	4f\	4dd\
4C/	.	4e/	4cc\
2G\	.	2d/	2b/
2D/	2f\	[<2a\	[y2dd\
=21	=21	=21	=21
!	!	!	!LO:N:xstem:cue
1A	2e\	2a\]	4dd\]
.	.	.	4cc\
.	4d\	2f#X\	2.cc\
.	4c/	.	.
1G	1d	1g	.
.	.	.	8b/
.	.	.	8a/
.	.	.	2b/
=22-	=22-	=22-	=22-
2C/	2.e\	2r	1cc
1c	.	1g	.
.	4d\	.	.
.	4e\	.	1r
.	4f\	.	.
2B\	[<2g\	2d/	.
=23	=23	=23	=23
1c	2g\]	2e/	2r
.	2e\	1cc	1ee
1r	1a	.	.
.	.	2a\	2cc\
=24-	=24-	=24-	=24-
2r	2g\	2b\	1dd
1G	1d	1b	.
.	.	.	1r
2E/	2e\	2g\	.
=25	=25	=25	=25
1D	2f\	1.a	2r
.	4d\	.	1ff
.	4e\	.	.
1r	4f\	.	.
.	4d\	.	.
.	2g\	2b\	2dd\
=26-	=26-	=26-	=26-
2r	2c/	2cc\	1ee
1c	1e	1g	.
.	.	.	1cc
2A\	4d\	2f#X\	.
.	4c/	.	.
=27	=27	=27	=27
2G\	2d\	2g\	2g/
2.G\	2.B/	2.d/	1dd
4G\	4B/	4d/	.
2F#X/	2A/	2d/	2dd\
=28-	=28-	=28-	=28-
2G\	2B/	2d/	2dd\
2.D/	1d	1a	2.ff\
4D/	.	.	4ff\
2C#X/	2e\	2a\	[<2ee\
=29	=29	=29	=29
4D/	1f	1a	2ee\]
4E/	.	.	.
4F/	.	.	2.dd\
8E/	.	.	.
8D/	.	.	.
1A	1e	2.a\	.
.	.	.	8cc#X\
.	.	.	8b\
.	.	.	2cc#\
.	.	4g\	.
=30-	=30-	=30-	=30-
2D/	2d\	2f#X\	2dd\
1G	1B	1g	1dd
2G\	2B/	2g\	2dd\
=31	=31	=31	=31
2C/	2c/	2g\	2ee\
2.F/	2A/	2.a\	2.cc\
.	2f\	.	.
4F/	.	4a\	4cc\
2G\	2d\	2.g\	2b/
=32-	=32-	=32-	=32-
1D	1d	.	1a
.	.	8f#X\	.
.	.	8e\	.
.	.	2f#\	.
!	!	!	!LO:SIC:v:s=1g
1GG	1d	1g	1a
=33	=33	=33	=33
*M3/2	*M3/2	*M3/2	*M3/2
00.r	0g	0b	0dd
.	1e	1cc	1ee
=34-	=34-	=34-	=34-
.	1.f	1.a	1.cc
.	2f\	2a\	2cc\
.	1d	1b	1dd
=35-	=35-	=35-	=35-
0.r	0c	0cc	0ee
.	1g	1b	1dd
=36-	=36-	=36-	=36-
0G	0d	0b	0.r
1C	1e	1cc	.
=37	=37	=37	=37
1.F	1.c	1.a	00.r
2F/	2c/	2a\	.
1G	1B	1g	.
=38-	=38-	=38-	=38-
0D	0A	0f#X	.
1GG	1B	1g	.
=39	=39	=39	=39
0G	0B	0g	0dd
1D	1d	1a	1ff
=40-	=40-	=40-	=40-
1.F	1.A	1.a	1.cc
2F/	2A/	2a\	2cc\
1C	1c	1g	1ee
=41-	=41-	=41-	=41-
0G	0B	0g	0dd
1G	1B	1g	1dd
=42-	=42-	=42-	=42-
*	*	*col	*
1.D	1.d	0a	1.ff
2E/	4c/	.	2ee\
.	4B/	.	.
1F	1A	1a	2dd\
.	.	.	2cc\
=43	=43	=43	=43
1C	1e	1g	0cc
1G	0d	0g	.
1GG	.	.	1b
*	*	*Xcol	*
=44-	=44-	=44-	=44-
*M2/1	*M2/1	*M2/1	*M2/1
*met(C|)	*met(C|)	*met(C|)	*met(C|)
!	!LO:SIC:v:s=2e\	!	!LO:TX:t=P:problem:zmiana metrum o takt za wcześnie
1C	2d\	1.g	2cc\
.	1c	.	4r
.	.	.	4ee\
4r	.	.	2gg\
4E/	.	.	.
2G\	2B/	2g\	4r
.	.	.	4.dd\
2D/	4A/	4f\	.
.	.	.	8dd\
.	2f\	2a\	4dd\
4r	.	.	2ff\
4d\	4d\	4a\	.
*custos:d	*custos:e	*custos:a	*custos:ee
!!LO:PB:g=original
=45	=45	=45	=45
4d\	2e\	2a\	2ee\
!LO:SIC:v:s=8c#\	!	!	!
8d#\	.	.	.
!LO:SIC:v:s=8B\	!	!	!
8c\	.	.	.
!LO:SIC:v:s=2c#\	!LO:SIC:v:s=2e\	!	!
2dny\	2f\	1a\	4r
.	.	.	4.dd\
2A\	2e\	.	.
.	.	.	8dd\
.	.	.	4cc#X\
2F#X/	4d\	2a\	2dd\
.	4c/	.	.
=46-	=46-	=46-	=46-
2.G\	4B/	1d	2.gg\
.	4A/	.	.
.	1B	.	.
4Fny/	.	.	4ff\
!	!	!	!LO:N:vis=8
4E/	.	2e/	4ee\
.	.	.	.
!	!	!	!LO:N:vis=8
4D/	.	.	4dd\
.	.	.	.
!	!	!	!LO:N:vis=8
2C/	[y2c/	2g\	4ccny\
!	!	!	!LO:N:vis=8
.	.	.	4b\
=47	=47	=47	=47
!	!LO:N:xstem:cue	!	!LO:TX:t=P:problem:takt na 3/1
2.F/	4c/]	2f\	2a/
.	4B/	.	.
.	4A/	2c/	1aa
4E/	4G/	.	.
2D/	2A/	2.d/	.
2.G\	2B/	.	1dd
.	.	4c/	.
.	2d\	4B/	.
4F/	.	8A/	.
.	.	8B/	.
4E/	[2G/	4c/	[y2gg\
4D/	.	4d/	.
=48	=48	=48	=48
!	!	!	!LO:N:xstem:cue
2.C/	2G/]	4e/	4gg\]
.	.	4f\	4ff\
.	2c/	1g	2ee\
4C/	.	.	.
2BB/	2d\	.	2dd\
2C/	2e\	2g\	2.cc\
.	.	.	.
.	.	.	.
=49-	=49-	=49-	=49-
2G\	1d	1g	.
.	.	.	8b/
.	.	.	8a/
2GG/	.	.	2b/
2.C/	2.e\	2.g\	2cc\
.	.	.	[<2gg\
4D/	4d\	4f\	.
=50	=50	=50	=50
4E/	2c/	2e/	2gg\]
4F/	.	.	.
2G\	2B/	2d/	2dd\
0C	4c/	0g	2.ee\
.	4G/	.	.
.	4c/	.	.
.	4d\	.	4dd\
=51-	=51-	=51-	=51-
.	1e	.	4cc\
.	.	.	4g/
.	.	.	4cc\
.	.	.	4dd\
1C	1.c	1g	1ee
=52-	=52-	=52-	=52-
1G	.	0gl	0ddl
.	4B/	.	.
.	4A/	.	.
1GGl	1Bl	.	.
==	==	==	==
*-	*-	*-	*-
!!!system-decoration: *
!!!RDF**kern: < = below
!!!RDF**kern: l = terminal long
!!!AIN: 4 organ
!!!ENC: Anastazja Marusiak
!!!END: 2021-12-16
!!!ENC: Marta Lawrence
!!!END: 2021-12-21
